X: 2059
T: MACKENZIE'S RANT
C:
Q: "Strathspey."
R: Strathspey.
%R: strathspey
B: James Kerr "Merry Melodies" v.2 p.9 #59
Z: 2016 John Chambers <jc:trillian.mit.edu>
M: C
L: 1/16
%%slurgraces yes
%%graceslurs yes
K: Am
ue2 |\
vAA3ve3ud ve3uAce3 | GG3 B3A G4(GB3) |\
AA3vc3ud ve3vAuc3ue | {^g}a3e =g3B {cB}A4 A2 :|\
ue2 |:\
vc3vBuA3u^g ae3=g3uB |
GG3 vB3uA G4(GB3) |\
[1 vc3vB uA2(v^f^g a3)veu=g3uB | {g}a3e=g3B {cB}A4 (A3e) :|\
[2 A3Bc3e d3eg3a | ge3 gB3 {cB}A4 A2 |]

%%sep 1 1 500
%%sep 1 1 500

